public/assets/type-icons/steel.svg

<?xml version="1.0" encoding="UTF-8" standalone="no"?>
<svg
   width="512"
   height="512"
   viewBox="0 0 512 512"
   fill="none"
   version="1.1"
   id="svg1"
   xmlns="http://www.w3.org/2000/svg"
   xmlns:svg="http://www.w3.org/2000/svg">
  <defs
     id="defs1" />
  <path
     fill-rule="evenodd"
     clip-rule="evenodd"
     d="m 0.0511107,254.527 c -0.0681153,-0.116 -0.0681495,-0.26 -9.11e-5,-0.377 L 128.795,34.1843 C 128.862,34.0702 128.985,34 129.117,34 h 255.177 c 0.133,0 0.256,0.0708 0.323,0.1859 L 511.949,254.152 c 0.067,0.115 0.067,0.258 0,0.373 L 384.617,474.244 c -0.067,0.115 -0.19,0.186 -0.323,0.186 H 129.117 c -0.132,0 -0.255,-0.07 -0.322,-0.184 z M 374.617,254.215 c 0,65.488 -53.089,118.577 -118.577,118.577 -65.488,0 -118.577,-53.089 -118.577,-118.577 0,-65.489 53.089,-118.577 118.577,-118.577 65.488,0 118.577,53.088 118.577,118.577 z"
     fill="white"
     id="path1"
     style="display:none;fill:#ffffff;fill-opacity:1" />
  <path
     d="M 384,34.297498 127.99946,34.297187 -5.3868333e-4,255.99969 128,477.7025 l 256.00053,3.1e-4 128,-221.7025 z M 316,152.07695 A 120,120 0 0 1 359.92305,316 120,120 0 0 1 196,359.92305 120,120 0 0 1 152.07695,196 120,120 0 0 1 316,152.07695 Z"
     style="display:inline;fill:#ffffff"
     id="path6" />
</svg>

<svg width="512" height="512" viewBox="0 0 512 512" fill="none" xmlns="http://www.w3.org/2000/svg">
<path fill-rule="evenodd" clip-rule="evenodd" d="M0.0511107 254.527C-0.0170046 254.411 -0.0170388 254.267 0.0510196 254.15L128.795 34.1843C128.862 34.0702 128.985 34 129.117 34H384.294C384.427 34 384.55 34.0708 384.617 34.1859L511.949 254.152C512.016 254.267 512.016 254.41 511.949 254.525L384.617 474.244C384.55 474.359 384.427 474.43 384.294 474.43H129.117C128.985 474.43 128.862 474.36 128.795 474.246L0.0511107 254.527ZM374.617 254.215C374.617 319.703 321.528 372.792 256.04 372.792C190.552 372.792 137.463 319.703 137.463 254.215C137.463 188.726 190.552 135.638 256.04 135.638C321.528 135.638 374.617 188.726 374.617 254.215Z" fill="white"/>
</svg>
